svg/furkot/public-domain/last.svg

<svg viewBox="0 0 512 512" xmlns="http://www.w3.org/2000/svg"><path d="m146.144 0-4.264 5.352-136.536 136.528-5.344 4.264v7.456 204.8 7.456l5.344 4.264 136.536 136.528 4.264 5.352h7.456 204.8 7.456l4.256-5.352 136.536-136.528 5.352-4.264v-7.456-204.8-7.456l-5.352-4.264-136.536-136.528-4.256-5.352h-7.456-204.8zm13.856 34.144h192l125.856 125.856v192l-125.856 125.856h-192l-125.856-125.856v-192zm-61.216 150.696c-12.864 0-23.584 2.88-32 10.616-8.352 7.744-13.184 20.224-13.184 32.96 0 10.944 3.832 20.64 10.336 27.648 6.496 6.976 15.704 11.192 27.296 13.816l8.488 2.112c6.52 1.48 10.776 3.816 12.216 5.32 1.504 1.536 1.888 2.336 1.888 6.368.032 4.512-1.176 6.4-3.744 8.48-2.592 2.112-6.944 4.256-14.112 4.256-4.608 0-9.184-1.536-14.112-3.16-4.96-1.672-10.592-4.04-15.992-7.464l-11.312-7.432v15.944 15.936 6.376l4.704 2.104c6.44 2.656 12.712 4.992 18.824 6.368 6.144 1.376 12.256 2.112 17.888 2.112 14.392 0 26.888-2.92 35.736-10.624 8.936-7.68 13.192-20.32 13.192-33.984 0-11.528-3.648-22.176-10.336-29.76-6.696-7.68-15.584-12.352-27.296-14.88l-9.416-1.056c-7.288-1.536-11.544-4.648-12.216-5.312-.896-.864-.96-1.784-.96-5.304 0-4.064.48-5.544 2.816-7.432 2.4-1.92 6.368-3.2 13.184-3.2 3.752 0 7.968.864 12.232 2.12 4.248 1.264 9.024 3.6 14.096 6.36l11.304 5.312v-13.824-15.936l-.416-5.408-5.216-3.072c-5.752-2.176-11.328-4.224-16.928-5.312-5.632-1.12-11.496-1.048-16.96-1.048zm205.12 0c-16.736 0-31.904 7-42.336 20.176-10.4 13.16-15.04 30.44-15.04 51.016s4.64 37.888 15.04 51c10.464 13.128 25.6 20.2 42.336 20.2 16.704 0 31.008-7.072 41.4-20.2 10.408-13.176 15.048-30.456 15.048-51 0-20.576-4.64-37.888-15.048-51.016-10.392-13.176-24.696-20.176-41.4-20.176zm-153.376 2.104-7.36.568-.16 7.912v13.824 9.568h7.52 30.112v96.696 9.576h7.52 14.112 8.48v-9.576-96.696h30.112 7.52v-9.568-13.824-8.512h-7.52zm230.528 0-7.368.568-.152 7.912v120.088 9.576h7.52 15.048 7.512v-9.576-39.32h10.336c13.128 0 23.968-2.624 32-10.624 8.064-7.968 12.224-20.416 12.224-34.016 0-13.504-4.192-24.992-12.224-32.96-8-8-18.848-11.648-31.968-11.648zm-77.152 28.704c8.48 0 13.152 2.752 17.888 9.568 4.744 6.816 7.52 16.992 7.52 30.816 0 13.76-2.776 24-7.52 30.816-4.736 6.848-9.408 9.568-17.888 9.568s-13.984-2.68-18.816-9.568c-4.768-6.816-7.52-17.056-7.52-30.816 0-13.824 2.784-24 7.52-30.816 4.832-6.88 10.336-9.568 18.816-9.568zm99.744 2.12h10.336c5.312 0 8.44 2.192 10.336 4.248 1.888 2.008 2.808 4.088 2.808 9.568 0 5.544-.944 8.608-2.808 10.624-1.896 2.016-5.024 3.2-10.336 3.2h-10.336z"/></svg>

<svg xmlns="http://www.w3.org/2000/svg" viewBox="0 0 512 512"><path d="M146.144 0 146.144 0L141.88 5.352 5.344 141.88 0 146.144 0 153.6 0 358.4 0 365.856 5.344 370.12 141.88 506.648 146.144 512 153.6 512 358.4 512 365.856 512 370.112 506.648 506.648 370.12 512 365.856 512 358.4 512 153.6 512 146.144 506.648 141.88 370.112 5.352 365.856 0 358.4 0 153.6 0 146.144 0ZM160 34.144L352 34.144 477.856 160 477.856 352 352 477.856 160 477.856 34.144 352 34.144 160 160 34.144ZM98.784 184.84 98.784 184.84C85.92 184.84 75.2 187.72 66.784 195.456 58.432 203.2 53.6 215.68 53.6 228.416 53.6 239.36 57.432 249.056 63.936 256.064 70.432 263.04 79.64 267.256 91.232 269.88L99.72 271.992C106.24 273.472 110.496 275.808 111.936 277.312 113.44 278.848 113.824 279.648 113.824 283.68 113.856 288.192 112.648 290.08 110.08 292.16 107.488 294.272 103.136 296.416 95.968 296.416 91.36 296.416 86.784 294.88 81.856 293.256 76.896 291.584 71.264 289.216 65.864 285.792L54.552 278.36 54.552 294.304 54.552 310.24 54.552 316.616 59.256 318.72C65.696 321.376 71.968 323.712 78.08 325.088 84.224 326.464 90.336 327.2 95.968 327.2 110.36 327.2 122.856 324.28 131.704 316.576 140.64 308.896 144.896 296.256 144.896 282.592 144.896 271.064 141.248 260.416 134.56 252.832 127.864 245.152 118.976 240.48 107.264 237.952L97.848 236.896C90.56 235.36 86.304 232.248 85.632 231.584 84.736 230.72 84.672 229.8 84.672 226.28 84.672 222.216 85.152 220.736 87.488 218.848 89.888 216.928 93.856 215.648 100.672 215.648 104.424 215.648 108.64 216.512 112.904 217.768 117.152 219.032 121.928 221.368 127 224.128L138.304 229.44 138.304 215.616 138.304 199.68 137.888 194.272 132.672 191.2C126.92 189.024 121.344 186.976 115.744 185.888 110.112 184.768 104.248 184.84 98.784 184.84ZM303.904 184.84C287.168 184.84 272 191.84 261.568 205.016 251.168 218.176 246.528 235.456 246.528 256.032 246.528 276.608 251.168 293.92 261.568 307.032 272.032 320.16 287.168 327.232 303.904 327.232 320.608 327.232 334.912 320.16 345.304 307.032 355.712 293.856 360.352 276.576 360.352 256.032 360.352 235.456 355.712 218.144 345.304 205.016 334.912 191.84 320.608 184.84 303.904 184.84ZM150.528 186.944L143.168 187.512 143.008 195.424 143.008 209.248 143.008 218.816 150.528 218.816 180.64 218.816 180.64 315.512 180.64 325.088 188.16 325.088 202.272 325.088 210.752 325.088 210.752 315.512 210.752 218.816 240.864 218.816 248.384 218.816 248.384 209.248 248.384 195.424 248.384 186.912 240.864 186.912ZM381.056 186.944L373.688 187.512 373.536 195.424 373.536 315.512 373.536 325.088 381.056 325.088 396.104 325.088 403.616 325.088 403.616 315.512 403.616 276.192 413.952 276.192C427.08 276.192 437.92 273.568 445.952 265.568 454.016 257.6 458.176 245.152 458.176 231.552 458.176 218.048 453.984 206.56 445.952 198.592 437.952 190.592 427.104 186.944 413.984 186.944ZM303.904 215.648C312.384 215.648 317.056 218.4 321.792 225.216 326.536 232.032 329.312 242.208 329.312 256.032 329.312 269.792 326.536 280.032 321.792 286.848 317.056 293.696 312.384 296.416 303.904 296.416 295.424 296.416 289.92 293.736 285.088 286.848 280.32 280.032 277.568 269.792 277.568 256.032 277.568 242.208 280.352 232.032 285.088 225.216 289.92 218.336 295.424 215.648 303.904 215.648ZM403.648 217.768L413.984 217.768C419.296 217.768 422.424 219.96 424.32 222.016 426.208 224.024 427.128 226.104 427.128 231.584 427.128 237.128 426.184 240.192 424.32 242.208 422.424 244.224 419.296 245.408 413.984 245.408L403.648 245.408Z"/></svg>
